!!!COM: Beethoven, Ludwig van
!!!CDT: 1770///-1827///
!!!OTL: Piano Sonata no. 1 in F minor
!!!OMD: Prestissimo
!!!OPS: 2
!!!ONM: 1
!!!OMV: 4
!!!AGN: Rondo
**kern	**kern	**dynam
*staff2	*staff1	*staff1/2
*Ipiano	*Ipiano	*Ipiano
*LH	*RH	*
*>[A,B,B1,B,B2,C]	*>[A,B,B1,B,B2,C]	*>[A,B,B1,B,B2,C]
*>norep[A,B,B2,C]	*>norep[A,B,B2,C]	*>norep[A,B,B2,C]
*>A	*>A	*>A
*clefF4	*clefG2	*
*k[b-e-a-d-]	*k[b-e-a-d-]	*
*f:	*f:	*
*M2/2	*M2/2	*
*MM192	*MM192	*
=1-	=1-	=1-
!	!	!LO:DY:b=2:rj
12FL	2r	p
12A-	.	.
12cJ	.	.
12FL	.	.
12A-	.	.
12cJ	.	.
=!|:	=!|:	=!|:
*>B	*>B	*>B
12FL	4f` 4a-` 4cc` 4ff`	p
12A-	.	.
12cJ	.	.
12FL	4e\` 4g\` 4b-\` 4dd-\` 4ee\`	.
12B-	.	.
12d-J	.	.
=2	=2	=2
12FL	4f` 4a-` 4cc` 4ff`	.
12c	.	.
12A-J	.	.
*Xtuplet	*	*
12FL<	4r	.
12C	.	.
12AA-J	.	.
12FFL	4cc` 4ff` 4aa-` 4ccc`	f
12AA-	.	.
12CJ	.	.
12EEL	4cc` 4gg` 4bb-` 4ccc`	.
12GG	.	.
12CJ	.	.
=3	=3	=3
12FFL	4cc` 4ff` 4aa-` 4ccc`	.
12AA-	.	.
12CJ	.	.
12FL	4r	.
12A-	.	.
12cJ	.	.
!	!	!LO:DY:rj
12FL	4f` 4a-` 4cc` 4ff`	p
12A-	.	.
12cJ	.	.
12FL	4e\` 4g\` 4b-\` 4dd-\` 4ee\`	.
12B-	.	.
12d-J	.	.
!!LO:LB:g=original
=4	=4	=4
*tuplet	*	*
12FL	4f` 4a-` 4cc` 4ff`	.
12c	.	.
12A-J	.	.
*Xtuplet	*	*
12FL<	4r	.
12C	.	.
12AA-J	.	.
!	!	!LO:DY:rj
12FFL	4cc` 4ff` 4aa-` 4ccc`	f
12AA-	.	.
12CJ	.	.
12EEL	4cc` 4gg` 4bb-` 4ccc`	.
12GG	.	.
12CJ	.	.
=5	=5	=5
*^	*	*
12FFL	2ryy	4cc` 4ff` 4aa-` 4ccc`	.
12AA-	.	.	.
12CJ	.	.	.
12FL	.	4r	.
12A-	.	.	.
12cJ	.	.	.
!	!	!	!LO:DY:rj
(4d-	2G	(4ee-'	p
4B-)	.	4ee-')	.
=6	=6	=6	=6
2c	2A-	(4ee-	.
.	.	4aa-)	.
(4d-	2G	(4ee-'	.
4B-)	.	4ee-')	.
=7	=7	=7	=7
2c	2A-	(4ee-	.
.	.	4aa-)	.
(4d-	2G	(4ee-	.
4B-)	.	4ee	.
*v	*v	*	*
=8	=8	=8
4A- (4c	4ff	.
4E 4G	4gg	.
4F 4A-	4aa-	.
4D- 4F)	4bb	.
!!LO:LB:g=original
=9	=9	=9
*^	*	*
2ryy	4C 4E	4ccc)	.
.	4c'	4r	.
*clefG2	*clefG2	*	*
!	!	!	!LO:DY:rj
(4b-	2en	(4cc'	p
4g)	.	4cc')	.
=10	=10	=10	=10
2a-	2f	(4cc	.
.	.	4ff)	.
(4b-	2e	(4cc'	.
4g)	.	4cc')	.
=11	=11	=11	=11
2a-	2f	(4cct	.
.	.	4ff)	.
*clefF4	*clefF4	*	*
(4B-	2E	(4cc'	.
4G)	.	4cc')	.
*v	*v	*	*
=12	=12	=12
.	(<ccq8	.
4F 4A-	(4.aa-z)	.
!LO:DY:rj	!	!
2Fz 2A-z	.	.
.	8gg	.
.	8ffL	.
.	8ee-	.
4F# 4A	8dd	.
.	8ccJ)	.
=13	=13	=13
*tuplet	*	*
12GL	4b	.
12B	.	.
12dJ	.	.
*Xtuplet	*	*
12GL	4r	.
12B	.	.
12dJ	.	.
!	!	!LO:DY:rj
12GL	4g` 4b` 4dd` 4gg`	p
12B	.	.
12dJ	.	.
12GL	4f#` 4a` 4cc` 4ee-` 4ff#`	.
12c	.	.
12e-J	.	.
!!LO:LB:g=original
=14	=14	=14
*tuplet	*	*
12GL	4g` 4b` 4dd` 4gg`	.
12d	.	.
12BJ	.	.
*Xtuplet	*	*
12GL	4r	.
12DnX	.	.
12BBnXJ	.	.
!	!	!LO:DY:rj
12GGL	4b` 4dd` 4gg` 4bbnX`	ff
12BB	.	.
12DJ	.	.
12GGL	4b` 4dd` 4gg` 4bb`	.
12BB	.	.
12DJ	.	.
=15	=15	=15
12GGL	4b` 4dd` 4gg` 4bb`	.
12BB	.	.
12DJ	.	.
12GXL	4r	.
12BnX	.	.
12dJ	.	.
!	!	!LO:DY:rj
12GL	4g` 4b` 4dd` 4gg`	p
12B	.	.
12dJ	.	.
12GL	4f#` 4an` 4cc` 4ee-` 4ff#`	.
12c	.	.
12e-J	.	.
=16	=16	=16
12GL	4g` 4b` 4dd` 4gg`	.
12d	.	.
12BJ	.	.
12GL	4r	.
12DnX	.	.
12BBnXJ	.	.
!	!	!LO:DY:rj
12GGL	4dd` 4gg` 4bbnX` 4dddnX`	ff
12BB	.	.
12DJ	.	.
12GGL	4dd` 4gg` 4bb` 4ddd`	.
12BB	.	.
12DJ	.	.
=17	=17	=17
12GGL	4dd` 4gg` 4bb` 4ddd`	.
12BB	.	.
12DJ	.	.
12GL	4r	.
12D	.	.
12BBJ	.	.
!	!	!LO:DY:rj
12GGL	4ff` 4bb` 4ddd` 4fff`	ff
12BB	.	.
12DJ	.	.
12GGL	4ff` 4bb` 4ddd` 4fff`	.
12BB	.	.
12DJ	.	.
!!LO:LB:g=original
=18	=18	=18
*tuplet	*	*
12GGnL	4ff` 4bb` 4ddd` 4fff`	.
12BB	.	.
12DJ	.	.
*Xtuplet	*	*
12GL	4r	.
12D	.	.
12BBJ	.	.
!	!	!LO:DY:rj
12GGL	4ff` 4bb` 4ddd` 4fff`	ff
12BB	.	.
12DJ	.	.
12GGL	4ff` 4bb` 4ddd` 4fff`	.
12BB	.	.
12DJ	.	.
=19	=19	=19
12GGL	4ff`z 4bb`z 4ddd`z 4fff`z	.
12BB	.	.
12DJ	.	.
12GL	4r	.
12D	.	.
12BBJ	.	.
!	!LO:DY:rj	!
12GGL	4ff`z 4bb`z 4ddd`z 4fff`z	.
12BB	.	.
12DJ	.	.
12GL	4r	.
12D	.	.
12BBJ	.	.
=20	=20	=20
4GG	12fffL	ff
.	12eee-	.
.	12dddJ	.
*	*Xtuplet	*
4r	12cccL	.
.	12bb	.
.	12aa-J	.
2r	12ggL	.
.	12ff	.
.	12ee-J	.
.	12ddnXL	.
.	12cc	.
.	12bnXJ	.
=21	=21	=21
2r	12a-L	.
.	12g	.
.	12fJ	.
.	12e-L	.
.	12d	.
.	12cJ	.
*tuplet	*	*
*Xbrackettup	*	*
12r	4B	.
12A-L	.	.
12GJ	.	.
12FL	4r	.
12E-	.	.
12DJ	.	.
!!LO:LB:g=original
=22	=22	=22
*	*tuplet	*
*	*Xbrackettup	*
4C\	12r	.
.	12e-L	.
.	12cJ	.
(4A-	12a-L	.
.	12e-	.
.	12cJ	.
4G	12gL	.
.	12e-	.
.	12cJ	.
4F#	12f#L	.
.	12e-	.
.	12cJ	.
=23	=23	=23
*	*Xtuplet	*
4G	12gL	.
.	12e-	.
.	12cJ	.
4A-	12a-L	.
.	12e-	.
.	12cJ	.
4G	12gL	.
.	12e-	.
.	12cJ	.
4F#)	12f#L	.
.	12e-	.
.	12cJ	.
=24	=24	=24
*tuplet	*	*
12GL	4g	.
12c	.	.
12e-J	.	.
*Xtuplet	*tuplet	*
12A-L	12ee-L	.
12c	12cc	.
12e-J	12a-J	.
*	*Xtuplet	*
12GL	12ee-L	.
12c	12cc	.
12e-J	12gJ	.
12F#L	12ee-L	.
12c	12cc	.
12e-J	12f#J	.
=25	=25	=25
12GL	12ee-L	.
12c	12cc	.
12e-J	12gJ	.
12A-L	12ee-L	.
12c	12cc	.
12e-J	12a-J	.
12GL	12ee-L	.
12c	12cc	.
12e-J	12gJ	.
12F#L	12ee-L	.
12c	12cc	.
12e-J	12f#J	.
!!LO:LB:g=original
=26	=26	=26
*tuplet	*	*
12GL	4ee-	.
12c	.	.
12e-J	.	.
*	*tuplet	*
(8A-L	12aa-L	.
.	12ee-	.
8a-J	.	.
.	12ccJ	.
*	*Xtuplet	*
8FL	12aa-L	.
.	12dd-X	.
8f	.	.
.	12ccJ	.
8G	12ggL	.
.	12dd-	.
8gJ	.	.
.	12b-J	.
=27	=27	=27
8EL	12ggL	.
.	12cc	.
8enX	.	.
.	12b-J	.
8F	12ffL	.
.	12cc	.
8fJ	.	.
.	12a-J	.
8BBL	12ffL	.
.	12dd	.
8BnX	.	.
.	12gJ	.
8C	12ee-L	.
.	12cc	.
8cJ)	.	.
.	12gJ	.
=28	=28	=28
(8DDL	12ddL	.
.	12b	.
8DnX	.	.
.	12fJ	.
8EE-	12ccL	.
.	12g	.
8E-J	.	.
.	12e-J	.
8FFL	12bL	.
.	12a-	.
8F	.	.
.	12dnXJ	.
8FF#	12ccL	.
.	12a	.
8F#XJ)	.	.
.	12e-J	.
=29	=29	=29
(8GGL	12gL	.
.	12e-	.
8G	.	.
.	12cJ	.
8GG	12gL	.
.	12e-	.
8GJ	.	.
.	12cJ	.
8GGL	12gL	.
.	12d	.
8G	.	.
.	12BJ	.
8GG	12gL	.
.	12d	.
8GJ)	.	.
.	12BJ	.
!!LO:LB:g=original
=30	=30	=30
*	*tuplet	*
4C\	12cL	.
.	12e-	.
.	12gJ	.
*	*Xtuplet	*
(8A-L	12ccL	.
.	12a-	.
8cJ	.	.
.	12e-J	.
8FL	12ccL	.
.	12a-	.
8A-	.	.
.	12d-XJ	.
8G	12b-XL	.
.	12g	.
8B-J	.	.
.	12d-J	.
=31	=31	=31
8EL	12b-L	.
.	12g	.
8G	.	.
.	12cJ	.
8F	12a-L	.
.	12f	.
8A-J	.	.
.	12cJ	.
8BBL	12gL	.
.	12f	.
8D	.	.
.	12dJ	.
8C	12gL	.
.	12e-X	.
8E-J)	.	.
.	12cJ	.
=32	=32	=32
(<4DD	12a-L	.
.	12B<	.
.	12G<J	.
4EE-	12e-L	.
.	12c<	.
.	12G<J	.
*	*Xtuplet	*
4FF	12d<L	.
.	12A-<	.
.	12F<J	.
4FF#\)	12c<L	.
.	12A<	.
.	12E-<J	.
=33	=33	=33
8GGGL	12c<L	.
.	12G<	.
8GG	.	.
.	12E-<J	.
8GGG	12c<L	.
.	12G<	.
8GGJ	.	.
.	12E-<J	.
8GGGL	12B<L	.
.	12G<	.
8GG	.	.
.	12D<J	.
8GGG	12B<L	.
.	12G<	.
8GGJ	.	.
.	12D<J	.
!!LO:LB:g=original
=34	=34	=34
*tuplet	*	*
12CCL>	4c<	.
12GG	.	.
12CJ	.	.
*Xtuplet	*	*
12CCL	4r	.
12GG	.	.
12CJ	.	.
!	!	!LO:DY:rj
12CCL	(4e-' 4ee-'	p
12GG	.	.
12CJ	.	.
12CCL	4e-') 4ee-'	.
12GG	.	.
12CJ	.	.
=35	=35	=35
12DDL	(4d 4dd	.
12FF	.	.
12BB-J	.	.
12DDL	4c 4cc	.
12FF	.	.
12BB-J	.	.
12DDL	4B- 4b-	.
12FF	.	.
12BB-J	.	.
12DDL	4A- 4a-	.
12FF	.	.
12BB-J	.	.
=36	=36	=36
12EE-L	2G) 2g	.
12GG	.	.
12BB-J	.	.
12EE-L	.	.
12GG	.	.
12BB-J	.	.
12EEL	4cc' (4ccc'	.
12GG	.	.
12CJ	.	.
12EEL	4cc' 4ccc')	.
12GG	.	.
12CJ	.	.
=37	=37	=37
12FFL	4b- (4bb-	.
12AA-	.	.
12CJ	.	.
12FFL	4a- 4aa-	.
12AA-	.	.
12CJ	.	.
12FFL	4g 4gg	.
12AA-	.	.
12DJ	.	.
12FFL	4f 4ff	.
12AA-	.	.
12DJ	.	.
!!LO:LB:g=original
=38	=38	=38
*tuplet	*	*
12GGL	2e-\ 2ee-\)	.
12BB-	.	.
12E-J	.	.
*Xtuplet	*	*
12GGL	.	.
12BB-	.	.
12E-J	.	.
12GGL	4g' (4gg'	.
12BB-	.	.
12EJ	.	.
12GGL	4g' 4gg')	.
12BB-	.	.
12EJ	.	.
=39	=39	=39
12AA-L	4f (4ff	.
12C	.	.
12FJ	.	.
12AA-L	4e-\ 4ee-\	.
12C	.	.
12FJ	.	.
12AA-L	4d 4dd	.
12C	.	.
12F#J	.	.
12AA-L	4c 4cc	.
12C	.	.
12F#J	.	.
=40	=40	=40
12GGL	2G 2g)	.
12C	.	.
12E-J	.	.
12GGL	.	.
12C	.	.
12E-J	.	.
12GGL	(4G' 4g'	.
12C	.	.
12E-J	.	.
12GGL	4G') 4g'	.
12C	.	.
12E-J	.	.
=41	=41	=41
12GGL	2G 2g	.
12BB	.	.
12DJ	.	.
12GGL	.	.
12BB	.	.
12DJ	.	.
12GGL	(4G' 4g'	.
12BB	.	.
12DJ	.	.
12GGL	4G') 4g'	.
12BB	.	.
12DJ	.	.
!!LO:LB:g=original
=42	=42	=42
*tuplet	*	*
12CCL	4c	.
12GG	.	.
12CJ	.	.
*Xtuplet	*	*
12CCL	4r	.
12GG	.	.
12CJ	.	.
12CCL	(4e-' 4ee-'	.
12GG	.	.
12CJ	.	.
12CCL	4e-') 4ee-'	.
12GG	.	.
12CJ	.	.
=43	=43	=43
12DDL	(4d 4dd	.
12FF	.	.
12BB-J	.	.
12DDL	4c 4cc	.
12FF	.	.
12BB-J	.	.
12DDL	4B- 4b-	.
12FF	.	.
12BB-J	.	.
12DDL	4A- 4a-	.
12FF	.	.
12BB-J	.	.
=44	=44	=44
12EE-L	2G) 2g	.
12GG	.	.
12BB-J	.	.
12EE-L	.	.
12GG	.	.
12BB-J	.	.
12EEL	4cc' (4ccc'	.
12GG	.	.
12CJ	.	.
12EEL	4cc' 4ccc')	.
12GG	.	.
12CJ	.	.
=45	=45	=45
12FFL	4b- (4bb-	.
12AA-	.	.
12CJ	.	.
12FFL	4a- 4aa-	.
12AA-	.	.
12CJ	.	.
12FFL	4g 4gg	.
12AA-	.	.
12DJ	.	.
12FFL	4f 4ff	.
12AA-	.	.
12DJ	.	.
!!LO:LB:g=original
=46	=46	=46
*tuplet	*	*
12GGL	2e-\ 2ee-\)	.
12BB-	.	.
12E-J	.	.
*Xtuplet	*	*
12GGL	.	.
12BB-	.	.
12E-J	.	.
12GGL	4g' (4gg'	.
12BB-	.	.
12EJ	.	.
12GGL	4g' 4gg')	.
12BB-	.	.
12EJ	.	.
=47	=47	=47
12AA-L	4f (4ff	.
12C	.	.
12FJ	.	.
12AA-L	4e-\ 4ee-\	.
12C	.	.
12FJ	.	.
12AA-L	4d 4dd	.
12C	.	.
12F#J	.	.
12AA-L	4c 4cc)	.
12C	.	.
12F#J	.	.
=48	=48	=48
12GGL	2G 2g	.
12C	.	.
12E-J	.	.
12GGL	.	.
12C	.	.
12E-J	.	.
12GGL	(4G' 4g'	.
12C	.	.
12E-J	.	.
12GGL	4G') 4g'	.
12C	.	.
12E-J	.	.
=49	=49	=49
12GGL	2G 2g	.
12BB	.	.
12DJ	.	.
12GGL	.	.
12BB	.	.
12DJ	.	.
12GGL	(4G' 4g'	.
12BB	.	.
12DJ	.	.
12GGL	4G') 4g'	.
12BB	.	.
12DJ	.	.
!!LO:LB:g=original
=50	=50	=50
*tuplet	*	*
12CL	4c	.
12E-	.	.
12GJ	.	.
12c>L	4rdd	.
12e->	.	.
!	!	!LO:DY:a
12g>J	.	ff
*Xtuplet	*	*
12c>L	4cc` 4ee-` 4gg` 4ccc`	.
12e->	.	.
12g>J	.	.
12c>L	4b` 4dd` 4ff` 4aa-` 4bb`	.
12f>	.	.
12a->J	.	.
=51	=51	=51
12c>L	4cc` 4ee-` 4gg` 4ccc`	.
12g>	.	.
12e->J	.	.
12cL	4rdd	.
12G	.	.
12E-J	.	.
12CL	4g` 4cc` 4ee-` 4gg`	ff
12E-	.	.
12GJ	.	.
12GGL<	4g` 4b` 4dd` 4gg`	.
12D	.	.
12GJ	.	.
=52	=52	=52
12CL	4g` 4cc` 4ee-` 4gg`	.
12E-	.	.
12GJ	.	.
12c>L	4rdd	.
12e->	.	.
12g>J	.	.
12c>L	4cc` 4ee-` 4gg` 4ccc`	.
12e->	.	.
12g>J	.	.
12c>L	4b` 4dd 4ff 4aa- 4bb	.
12f>	.	.
12a->J	.	.
=53	=53	=53
12c>L	4cc` 4ee-` 4gg` 4ccc`	.
12g>	.	.
12e->J	.	.
12cL	4r	.
12G	.	.
12E-J	.	.
12CL	4g` 4cc` 4ee-` 4gg`	.
12E-	.	.
12GJ	.	.
12GGL<	4g` 4b` 4dd` 4gg`	.
12D	.	.
12GJ	.	.
!!LO:LB:g=original
=54	=54	=54
12CL	4g` 4cc` 4ee-` 4gg`	.
12E-	.	.
12GJ	.	.
12cL	4r	.
12G	.	.
12E-J	.	.
12CL	4g` 4cc` 4ee-` 4gg`	.
12E-	.	.
12GJ	.	.
12GGL<	4g` 4b` 4dd` 4gg`	.
12D	.	.
12GJ	.	.
=55	=55	=55
12CL	4g` 4cc` 4ee-` 4gg`	.
12E-	.	.
12GJ	.	.
12cL	4r	.
12G	.	.
12E-J	.	.
12CL	4g` 4cc` 4ee-`	.
12E-	.	.
12GJ	.	.
12cL	4r	.
12G	.	.
12E-J	.	.
=56	=56	=56
*>B1	*>B1	*>B1
12CL	4e-` 4g` 4cc`	.
12E-	.	.
12GJ	.	.
12cL	4r	.
12G	.	.
12E-J	.	.
12CL	4e` 4g` 4b-X`	.
12E	.	.
12GJ	.	.
12cL	4r	.
12G	.	.
12EJ	.	.
=57	=57	=57
!	!	!LO:DY:b=2:rj
12FL	4f' 4a-'	p
12A-	.	.
12cJ	.	.
12FL	4r	.
12A-	.	.
12cJ	.	.
!!LO:LB:g=original
=:|!	=:|!	=:|!
*>B2	*>B2	*>B2
4C`	4e-` 4g` 4cc`	.
4r	4r	.
2r	2r	.
=58	=58	=58
4BB-` 4D-X` 4E-` 4G`	4d-X` 4e-` 4g` 4dd-X`	ff
4r	4r	.
4BB-` 4D-` 4E-` 4G`	4d-` 4e-` 4g` 4b-`	.
4r	4r	.
=59	=59	=59
4BB-` 4D-` 4E-` 4G`	4d-` 4e-` 4g`	.
4r	4r	.
2r	2r	.
=60||	=60||	=60||
*>C	*>C	*>C
!	!LO:TX:b:i:t=sempre piano e dolce	!
4r	(>1e-	.
4A- 4c	.	.
4A- 4c	.	.
4A- 4c	.	.
=61	=61	=61
4r	2a-\	.
4A- 4c 4e-	.	.
4A- 4c 4e-	2cc)	.
4A- 4c 4e-	.	.
=62	=62	=62
4r	2.ee-	.
4G 4B- 4e-	.	.
4G 4B- 4e-	.	.
4G 4B- 4e-	(4ee-	.
=63	=63	=63
4r	4dd	.
4G 4B- 4e-	4ee-	.
4G 4B- 4e-	4ff	.
4G 4B- 4e-	4ee-')	.
=64	=64	=64
4r	(4ee-	.
4F 4A- 4d-X	4dd-X)	.
4F 4A- 4d-	4r	.
4F 4A- 4d-	4dd-'	.
!!LO:LB:g=original
=65	=65	=65
4r	(4dd-	.
4E- 4A- 4c	4cc)	.
4E- 4A- 4c	4r	.
4E- 4A- 4c	4cc'	.
=66	=66	=66
4r	(8ccL	.
.	8b-	.
4D- 4F 4B-	8dd-	.
.	8ccJ	.
4D- 4F 4B-	8ee-L	.
.	8dd-	.
4D- 4F 4B-	8cc	.
.	8b-J)	.
=67	=67	=67
4r	(2a-SSs\	.
4E- 4c	.	.
4E- 4d-	4cc	.
4E- 4d-	4b-)	.
=68	=68	=68
4r	(2.b-	.
4A- 4d-	.	.
4A- 4d-	.	.
4A- 4d-	4cc	.
=69	=69	=69
4r	4a-\)	.
(4A-	4r	.
4c	2r	.
4e-)	.	.
*clefG2	*	*
=70	=70	=70
4r	2.ee-	.
4a- 4cc	.	.
4a- 4cc	.	.
4a- 4cc	4ee-'	.
=71	=71	=71
4r	(4gg	.
4a- 4cc 4ee-	4aa-)	.
4a- 4cc 4ee-	(4bb	.
4a- 4cc 4ee-	4ccc)	.
=72	=72	=72
4r	(4ddd	.
4g 4b- 4ee-	4eee-)	.
4g 4b- 4ee-	4r	.
4g 4b- 4ee-	(4eee-	.
!!LO:LB:g=original
=73	=73	=73
4r	4ddd	.
4g 4b- 4ee-	4eee-	.
4g 4b- 4ee-	4fff	.
4g 4b- 4ee-	4eee-')	.
=74	=74	=74
4r	(4eee-	.
4f 4a- 4dd-	4ddd-X)	.
4f 4a- 4dd-	4r	.
4f 4a- 4dd-	4ddd-'	.
=75	=75	=75
4r	(4ddd-	.
4e- 4a 4cc	4ccc)	.
4e- 4a 4cc	4r	.
4e- 4a 4cc	4ccc'	.
=76	=76	=76
4r	(8cccL	.
.	8bb-	.
4d- 4f 4b-	8ddd-	.
.	8cccJ	.
4d- 4f 4b-	8eee-L	.
.	8ddd-	.
4d- 4f 4b-	8ccc	.
.	8bb-J)	.
=77	=77	=77
4r	(2aa-SSs	.
4e- 4cc	.	.
4e- 4dd-	4ccc	.
4e- 4dd-	4bb-)	.
=78	=78	=78
*	*^	*
4r	(2.bb-	1dd-	.
(4g	.	.	.
4a-	.	.	.
4g	4ccc	.	.
=79	=79	=79	=79
4a-	4aa-)	4cc	.
4e-	2.ryy	4r	.
4c	.	4r	.
4A-)	.	4ee-'	.
*	*v	*v	*
!!LO:LB:g=original
=80	=80	=80
4r	(4ee-	.
4G 4B- 4e-	4ff	.
4G 4B- 4e-	4gg	.
4G 4B- 4e-	4aa-	.
=81	=81	=81
4r	4bb-	.
4B- 4d- 4e-	4gg	.
4B- 4d- 4e-	4ee-	.
4B- 4d- 4e-	4dd-)	.
=82	=82	=82
4r	(2.ee-	.
4A- 4c 4e-	.	.
4A- 4c 4e-	.	.
4A- 4c 4e-	4dd-T)	.
=83	=83	=83
4r	4cc	.
4c 4e- 4a-	4r	.
4c 4e- 4a-	4r	.
4c 4e- 4a-	4ee-	.
=84	=84	=84
4r	(8ee-L	.
.	8ff	.
4B- 4e- 4g	8ee-	.
.	8ddJ	.
4B- 4e- 4g	8ee-L	.
.	8ff	.
4B- 4e- 4g	8gg	.
.	8aa-J	.
=85	=85	=85
4r	8aaL	.
.	8bb-	.
4d- 4e- 4b-	8ccc	.
.	8bb-J	.
4d- 4e- 4b-	8aa-L	.
.	8gg	.
4d- 4e- 4b-	8ff	.
.	8ee-J)	.
*clefF4	*	*
!!LO:LB:g=original
=86	=86	=86
4r	2ee-	.
4E- (4G	.	.
4F 4A-	2dd-XT	.
4G 4B-	.	.
=87	=87	=87
4A- 4c	4cc	.
4B- 4d-	4r	.
4c 4e-	2r	.
4B- 4d-)	.	.
=88	=88	=88
4r	(>1e- 1ee-	.
4A- 4c	.	.
4A- 4c	.	.
4A- 4c	.	.
=89	=89	=89
4r	2a- 2aa-	<
4G- 4A- 4e-	.	.
4G- 4A- 4e-	2cc 2ccc)	.
4G- 4A- 4e-	.	[
=90	=90	=90
4r	(4ee- 4eee-	rf
4F 4A- 4d-	4dd- 4ddd-)	.
4F 4A- 4d-	4r	.
4F 4A- 4d-	4dd-' 4ddd-'	.
=91	=91	=91
4r	4dd- (4ddd-	.
4E- 4G- 4A	4cc 4ccc)	.
4E- 4G- 4A	4r	.
4E- 4G- 4A	4cc' 4ccc'	.
=92	=92	=92
4r	4cc (4ccc	.
4D- 4F 4B-	4b- 4bb-	.
4D- 4F 4B-	4ff 4fff	.
4D- 4F 4B-	4ee- 4eee-)	.
=93	=93	=93
4r	4ee- (4eee-	.
4E- 4G 4d-	4dd- 4ddd-	.
4E- 4G 4d-	4cc 4ccc	.
4E- 4G 4d-	4b- 4bb-)	.
!!LO:LB:g=original
=94	=94	=94
4r	2.b- (2.bb-	.
4A- 4d-	.	.
4A- 4d-	.	.
4A- 4d-	4cc 4ccc	.
=95	=95	=95
4r	4a- 4aa-)	.
4A- 4c	4r	.
4c 4e-	4r	.
4A- 4c	4ee-	.
=96	=96	=96
4r	(4ee-	.
4G 4B- 4e-	4ff	.
4G 4B- 4e-	4gg	.
4G 4B- 4e-	4aa-	.
=97	=97	=97
4r	4bb-	.
4B- 4d- 4e-	4gg	.
4B- 4d- 4e-	4ee-	.
4B- 4d- 4e-	4dd-)	.
=98	=98	=98
4r	(2.ee-	.
4A- 4c 4e-	.	.
4A- 4c 4e-	.	.
4A- 4c 4e-	4dd-T)	.
*clefG2	*	*
=99	=99	=99
4r	4cc	.
4c 4e- 4a-	4r	.
4c 4e- 4a-	4r	.
4c 4e- 4a-	4ee-	.
=100	=100	=100
4r	(8ee-L	.
.	8ff	.
4B- 4e- 4g	8ee-	.
.	8ddJ	.
4B- 4e- 4g	8ee-L	.
.	8ff	.
4B- 4e- 4g	8gg	.
.	8aa-J	.
!!LO:LB:g=original
=101	=101	=101
4r	8bb-L	.
.	8bb	.
4d- 4e- 4b-	8ccc	.
.	8ddd-J	.
4d- 4e- 4b-	8dddnL	.
.	8eee-	.
4d- 4e- 4b-	8fff	.
.	8eeeJ)	.
*clefF4	*	*
=102	=102	=102
4r	(2eee-	.
4E- (4G	.	.
4F 4A-	2ddd-T)	.
4G 4B-)	.	.
=103	=103	=103
4A- (4c	4ccc	.
4B- 4d-	4r	.
4c 4e-	2r	.
4B- 4d-)	.	.
=104	=104	=104
4r	(>\1e- 1ee-\	<
4A- 4c	.	.
4A- 4c	.	.
4A- 4c	.	[[
=105	=105	=105
4r	2a- 2aa-	<
4G- 4A- 4e-	.	.
4G- 4A- 4e-	2cc 2ccc)	.
4G- 4A- 4e-	.	[[
=106	=106	=106
4r	4ee- (4eee-	rf
4F 4A- 4d-	4dd- 4ddd-)	.
4F 4A- 4d-	4r	.
4F 4A- 4d-	4dd-' 4ddd-'	.
=107	=107	=107
4r	4dd- (4ddd-	rf
4E- 4G- 4A	4cc 4ccc)	.
4E- 4G- 4A	4r	.
4E- 4G- 4A	4cc' 4ccc'	.
!!LO:LB:g=original
=108	=108	=108
4r	4cc (4ccc	.
4D- 4F 4B-	4b- 4bb-	.
4D- 4F 4B-	4ff 4fff	.
4D- 4F 4B-	4ee- 4eee-)	.
=109	=109	=109
4r	4ee- (4eee-	.
4E- 4G 4d-	4dd- 4ddd-	.
4E- 4G 4d-	4cc 4ccc	.
4E- 4G 4d-	4b- 4bb-)	.
=110	=110	=110
*tuplet	*	*
12AA-L	4a- 4aa-	.
12C	.	.
12E-J	.	.
*Xtuplet	*	*
12AA-L	4r	.
12C	.	.
12E-J	.	.
12AA-L	4c' 4cc'	pp
12C	.	.
12E-J	.	.
12AA-L	4B' 4b'	.
12C	.	.
12E-J	.	.
=111	=111	=111
12AA-L	4c' 4cc'	.
12C	.	.
12E-J	.	.
12AA-L	4r	.
12C	.	.
12E-J	.	.
12AA-L	4c' 4cc'	.
12C	.	.
12E-J	.	.
12AA-L	4B' 4b'	.
12C	.	.
12E-J	.	.
=112	=112	=112
4AA-	(1ccSss	.
4A- 4c 4e-	.	.
4A- 4c 4e-	.	.
4A- 4c 4e-	.	.
=113	=113	=113
4A- 4c 4e-	2.ccc	rf
4A- 4c 4e-	.	.
4A- 4c 4e-	.	.
4A- 4c 4e-	4cc	.
!!LO:LB:g=original
=114	=114	=114
*tuplet	*	*
12GGL	4b-)	.
12C	.	.
12EJ	.	.
*Xtuplet	*	*
12GGL	4r	.
12C	.	.
12EJ	.	.
12GGL	4B-' 4b-'	pp
12C	.	.
12EJ	.	.
12GGL	4A' 4a'	.
12C	.	.
12EJ	.	.
=115	=115	=115
12GGL	4B-' 4b-'	.
12C	.	.
12EJ	.	.
12GGL	4r	.
12C	.	.
12EJ	.	.
12GGL	4B-' 4b-'	.
12C	.	.
12EJ	.	.
12GGL	4A' 4a'	.
12C	.	.
12EJ	.	.
=116	=116	=116
4GG	(1b-SSs	.
4G 4B- 4e	.	.
4G 4B- 4e	.	.
4G 4B- 4e	.	.
=117	=117	=117
4G 4B- 4e	2.bb-z	.
4G 4B- 4e	.	.
4G 4B- 4e	.	.
4G 4B- 4e	4b-	.
=118	=118	=118
*tuplet	*	*
12FFL	4a-X\)	.
12C	.	.
12FJ	.	.
*Xtuplet	*	*
12FFL	4r	.
12C	.	.
12FJ	.	.
12FFL	4A-' 4a-'	pp
12C	.	.
12FJ	.	.
12FFL	4G' 4g'	.
12C	.	.
12FJ	.	.
!!LO:LB:g=original
=119	=119	=119
*tuplet	*	*
12FFL	4A-' 4a-'	.
12C	.	.
12FJ	.	.
*Xtuplet	*	*
12FFL	4r	.
12C	.	.
12FJ	.	.
12FFL	4A-' 4a-'	.
12C	.	.
12FJ	.	.
12FFL	4G' 4g'	.
12C	.	.
12FJ	.	.
=120	=120	=120
4FF	1a-SSs	.
4F 4A-	.	.
4F 4A-	.	.
4F 4A-	.	.
=121	=121	=121
*^	*	*
4F 4A-	1D-	(2.aa-	sf
4F 4A-	.	.	.
4F 4A-	.	.	.
4F 4A-	.	4a-\)	.
=122	=122	=122	=122
4G- 4A-	1C	(2.aa-	sf
4G- 4A-	.	.	.
4G- 4A-	.	.	.
4G- 4A-	.	4a-\)	.
=123	=123	=123	=123
4G- 4A-	1E-	(2.aa-	sf
4G- 4A-	.	.	.
4G- 4A-	.	.	.
4G- 4A-	.	4a-\)	.
=124	=124	=124	=124
4F 4A-	1D-	(2.aa-	sf
4F 4A-	.	.	.
4F 4A-	.	.	.
4F 4A-	.	4a-\)	.
!!LO:LB:g=original
=125	=125	=125	=125
!	!	!	!LO:DY:rj
4E- 4F	1C	(2.aa	sf
4E- 4F	.	.	.
4E- 4F	.	.	.
4E- 4F	.	4anX\)	.
=126	=126	=126	=126
*	*	*^	*
4D- 4F	1BB-	2.bb-	4r	ff
4D- 4F	.	.	2b-	.
4D- 4F	.	.	.	.
4D- 4F	.	4aa-	4a-	.
*	*	*v	*v	*
=127	=127	=127	=127
4rA	2BB-	(4gg	.
4D- 4G	.	4g	.
4rA	2BB	4ff	.
4D 4G	.	4f)	.
*v	*v	*	*
=128	=128	=128
*tuplet	*	*
12CL	4ee	.
12E	.	.
12GJ	.	.
*Xtuplet	*tuplet	*
!	!	!LO:DY:rj
4r	12cL	p
.	12enX	.
.	12gJ	.
*	*Xtuplet	*
4c'	12ccL	.
.	12g	.
.	12eJ	.
4c'	12bL	.
.	12a-	.
.	12fJ	.
=129	=129	=129
4c'	12ccL	.
.	12g	.
.	12eJ	.
4r	12cL	.
.	12g	.
.	12eJ	.
4C'	12r	.
.	12gL	.
.	12eJ	.
4BB'	12r	.
.	12a-L	.
.	12fJ	.
!!LO:LB:g=original
=130	=130	=130
*tuplet	*	*
12CL	4r	.
12E	.	.
12GJ	.	.
*Xtuplet	*tuplet	*
4r	12cL	.
.	12e	.
.	12gJ	.
*	*Xtuplet	*
4c'	12ccL	.
.	12g	.
.	12eJ	.
4c'	12bL	.
.	12a-	.
.	12fJ	.
=131	=131	=131
4c'	12ccL	.
.	12g	.
.	12eJ	.
4r	12cL	.
.	12g	.
.	12eJ	.
4C'	12r	.
.	12gL	.
.	12eJ	.
4BB'	12r	.
.	12a-L	.
.	12fJ	.
=132	=132	=132
*^	*	*
*	*	*^	*
2r	[1C	12r	2ryy	.
.	.	12gL	.	.
.	.	12eJ	.	.
.	.	12ccL	.	.
.	.	12g	.	.
.	.	12eJ	.	.
(4B-X	.	(4dd-	12dd-L	.
.	.	.	12g	.
.	.	.	12eJ	.
4A	.	4cc	12ccL	.
.	.	.	12g	.
.	.	.	12eJ	.
=133	=133	=133	=133	=133
4B-)	4C]	4dd-)	12dd-L	.
.	.	.	12g	.
.	.	.	12eJ	.
!	!LO:DY:rj	!	!	!
4r	[2.Cz	4ryy	12r	.
.	.	.	12gL<	.
.	.	.	12eJ	.
(4B-	.	(4dd-	12dd-L	.
.	.	.	12g	.
.	.	.	12eJ	.
4An	.	4cc	12ccL	.
.	.	.	12g	.
.	.	.	12eJ	.
!!LO:LB:g=original
=134	=134	=134	=134	=134
*	*	*	*tuplet	*
4B-)	4C]	4dd-)	12dd-L	.
.	.	.	12g	.
.	.	.	12eJ	.
!	!LO:DY:rj	!	!	!
4r	[2.Cz	4ryy	12r	.
.	.	.	12gL<	.
.	.	.	12eJ	.
*	*	*	*Xtuplet	*
(4B-	.	(4dd-	12dd-L	>
.	.	.	12g	.
.	.	.	12eJ	.
4An	.	4cc	12ccL	.
.	.	.	12g	.
.	.	.	12eJ	]
=135	=135	=135	=135	=135
1B-)	1C_	4dd-	12dd-L	>
.	.	.	12g	.
.	.	.	12eJ	.
.	.	4cc	12ccL	.
.	.	.	12g	.
.	.	.	12eJ	.
.	.	4dd-	12dd-L	.
.	.	.	12g	.
.	.	.	12eJ	.
.	.	4cc	12ccL	.
.	.	.	12g	.
.	.	.	12eJ	.
*	*	*v	*v	*
=136	=136	=136	=136
1G	1C_	12dd-L	>
.	.	12g	.
.	.	12eJ	.
.	.	12ccL	.
.	.	12g	.
.	.	12eJ	.
.	.	12dd-L	] pp
.	.	12g	.
.	.	12eJ	.
.	.	12ccL	.
.	.	12g	.
.	.	12eJ)	.
=137	=137	=137	=137
1E	1C_	(>12dd-L	>
.	.	12g	.
.	.	12eJ	.
.	.	12ccL	.
.	.	12g	]
.	.	12eJ	.
.	.	12dd-L	pp
.	.	12g	.
.	.	12eJ	.
.	.	12ccL	.
.	.	12g	.
.	.	12eJ	.
!!LO:LB:g=original
=138	=138	=138	=138
*	*	*tuplet	*
1B-	1C]	12dd-L	.
.	.	12g	.
.	.	12eJ	.
*	*	*Xtuplet	*
.	.	12ccL	.
.	.	12g	.
.	.	12eJ	.
.	.	12dd-L	.
.	.	12g	.
.	.	12eJ	.
.	.	12ccL	.
.	.	12g	.
.	.	12eJ)	.
*v	*v	*	*
=139	=139	=139
*tuplet	*	*
12FL	4f	f
12A-	.	.
12cJ	.	.
*Xtuplet	*	*
12FL	4r	.
12A-	.	.
12cJ	.	.
12FL	4f` 4a-` 4cc` 4ff`	.
12A-	.	.
12cJ	.	.
12FL	4e\` 4g\` 4b-\` 4dd-\` 4ee\`	.
12B-	.	.
12d-J	.	.
=140	=140	=140
12FL	4f` 4a-` 4cc` 4ff`	.
12c	.	.
12A-J	.	.
12FL<	4r	.
12C	.	.
12AA-J	.	.
12FFL	4cc` 4ff` 4aa-` 4ccc`	.
12AA-	.	.
12CJ	.	.
12EEL	4cc` 4gg` 4bb-` 4ccc`	.
12GG	.	.
12CJ	.	.
=141	=141	=141
12FFL	4cc 4ff 4aa- 4ccc	.
12AA-	.	.
12CJ	.	.
12FL	4r	.
12A-	.	.
12cJ	.	.
12FL	4f` 4a-` 4cc` 4ff`	.
12A-	.	.
12cJ	.	.
12FL	4e\` 4g\` 4b-\` 4dd-\` 4ee\`	.
12B-	.	.
12d-J	.	.
!!LO:LB:g=original
=142	=142	=142
*tuplet	*	*
12FL	4f` 4a-` 4cc` 4ff`	.
12c	.	.
12A-J	.	.
*Xtuplet	*	*
12FL<	4r	.
12C	.	.
12AA-J	.	.
12FFL	4cc` 4ff` 4aa-` 4ccc`	.
12AA-	.	.
12CJ	.	.
12EEL	4cc` 4gg` 4bb-` 4ccc`	.
12GG	.	.
12CJ	.	.
=143	=143	=143
*^	*	*
2ryy	12FFL	4cc` 4ff` 4aa-` 4ccc`	.
.	12AA-	.	.
.	12CJ	.	.
.	12FL	4r	.
.	12A-	.	.
.	12cJ	.	.
(4d-	2G	(4ee-X'	p
4B-)	.	4ee-')	.
=144	=144	=144	=144
2c	2A-	(4ee-	.
.	.	4aa-)	.
(4d-	2G	(4ee-'	.
4B-)	.	4ee-')	.
=145	=145	=145	=145
2c	2A-	(4ee-	.
.	.	4aa-)	.
(4d-	2G	(4ee-	.
4B-	.	4ee	.
=146	=146	=146	=146
4c	4A-	4ff	.
4G	4E	4gg	.
4A-	4F	4aa-	.
4F)	4D-	4bb	.
=147	=147	=147	=147
4E	4C	4ccc)	.
4c/	4ryy	4r	.
*clefG2	*clefG2	*	*
(4b-	2enX	(4cc'	.
4g)	.	4cc')	.
!!LO:LB:g=original
=148	=148	=148	=148
2f	2a-	(4cc	.
.	.	4ff)	.
*clefF4	*	*	*
2ryy	(>4c'	8r	.
.	.	(8ddd-L	.
.	4c')	8ccc	.
.	.	8bb-J)	.
*v	*v	*	*
=149	=149	=149
*^	*	*
2ryy	(>4c	(8bb-L	.
.	.	8aa-	.
.	4f)	8gg	.
.	.	8ffJ)	.
*clefG2	*clefG2	*	*
(4b-	2e	(4cc'	.
4g)	.	4cc')	.
*v	*v	*	*
=150	=150	=150
2f 2a-	(4cct	.
.	(<16bqLL	.
.	16ccqJJ	.
.	4ff))	.
*clefF4	*	*
4c'	8r	.
.	(8ddd-L	.
4c'	8ccc	.
.	8bb-J)	.
=151	=151	=151
(4ct	(8bb-L	.
.	8aa-	.
16BqLL	.	.
16cqJJ	.	.
4f)	8gg	.
.	8ffJ)	.
4E 4G	8r	.
!	!	!LO:DY:rj
.	(8ddd-L	fp
4E 4G	8ccc	.
.	8bb-J)	.
=152	=152	=152
4F 4A-	(8bb-L	.
.	8aa-	.
4r	8gg	.
.	8ffJ	.
4D- 4F	8ee-XL	.
.	8dd-	.
4r	8cc	.
.	8bJ)	.
!!LO:LB:g=original
=153	=153	=153
*tuplet	*	*
12CL	4cc	.
12E	.	.
12GJ	.	.
*Xtuplet	*	*
12CL	4r	.
12E	.	.
12GJ	.	.
!	!	!LO:DY:rj
12CL	4c` 4e` 4g` 4cc`	p
12E	.	.
12GJ	.	.
12CL	4B` 4d-` 4f` 4a-` 4b`	.
12F	.	.
12A-J	.	.
=154	=154	=154
12CL	4c` 4e` 4g` 4cc`	.
12G	.	.
12EJ	.	.
12CL	4r	.
12GG	.	.
12EEnXJ	.	.
!	!	!LO:DY:rj
12CCL	4enX` 4g` 4cc` 4eenX`	f
12EE	.	.
12GGJ	.	.
12CCL	4e` 4g` 4cc` 4ee`	.
12EE	.	.
12GGJ	.	.
=155	=155	=155
12CCL	4e` 4g` 4cc` 4ee`	.
12EE	.	.
12GGJ	.	.
12CL	4r	.
12EnX	.	.
12GJ	.	.
!	!	!LO:DY:rj
12CL	4c` 4e` 4g` 4cc`	p
12E	.	.
12GJ	.	.
12CL	4B` 4d` 4f` 4a-` 4b`	.
12F	.	.
12A-J	.	.
=156	=156	=156
12CL	4c` 4e` 4g` 4cc`	.
12G	.	.
12EJ	.	.
12CL	4r	.
12GG	.	.
12EEnXJ	.	.
!	!	!LO:DY:rj
12CCL	4g` 4cc` 4eenX` 4gg`	f
12EE	.	.
12GGJ	.	.
12CCL	4g` 4cc` 4ee` 4gg`	.
12EE	.	.
12GGJ	.	.
!!LO:LB:g=original
=157	=157	=157
12CCL	4g` 4cc` 4ee` 4gg`	.
12EE	.	.
12GGJ	.	.
12CL	4r	.
12GG	.	.
12EEJ	.	.
!	!	!LO:DY:rj
12CCL	4b-` 4ee` 4gg` 4bb-`	f
12EE	.	.
12GGJ	.	.
12CCL	4b-` 4ee` 4gg` 4bb-`	.
12EE	.	.
12GGJ	.	.
=158	=158	=158
12CCL	4b-` 4ee` 4gg` 4bb-`	.
12EE	.	.
12GGJ	.	.
12CL	4r	.
12GG	.	.
12EEJ	.	.
!	!	!LO:DY:rj
12CCL	4b-` 4ee` 4gg` 4bb-`	ff
12EE	.	.
12GGJ	.	.
12CCL	4b-` 4ee` 4gg` 4bb-`	.
12EE	.	.
12GGJ	.	.
=159	=159	=159
12CCL	4b-` 4ee` 4gg` 4bb-`	.
12EE	.	.
12GGJ	.	.
12CL	4r	.
12GG	.	.
12EEJ	.	.
12CCL	4b-` 4ee` 4gg` 4bb-`	.
12EE	.	.
12GGJ	.	.
12CL	4r	.
12GG	.	.
12EEJ	.	.
=160	=160	=160
*	*tuplet	*
4CC	12bb-L	sf
.	12aa-	.
.	12ggJ	.
*	*Xtuplet	*
4r	12ffL	.
.	12ee	.
.	12dd-J	.
2r	12ccL>	.
.	12b-	.
.	12a-J	.
.	12gL	.
.	12f	.
.	12enXJ	.
!!LO:LB:g=original
=161	=161	=161
*	*tuplet	*
2rD	12d-L	.
.	12c	.
.	12B-J	.
.	12A-<L	.
.	12G<	.
.	12F<J	.
*tuplet	*	*
12rGG	4E<	.
12D-L	.	.
12CJ	.	.
12BB-L	4rA<	.
12AA-	.	.
12GGJ	.	.
=162	=162	=162
*	*Xtuplet	*
4FF	12r	.
.	12fL	.
.	12a-J	.
(4D-/	12d-L	.
.	12f	.
.	12a-J	.
4C	12cL	.
.	12f	.
.	12a-J	.
4BB	12BL	.
.	12f	.
.	12a-J	.
=163	=163	=163
4C	12cL	.
.	12f	.
.	12a-J	.
4D-/	12d-L	.
.	12f	.
.	12a-J	.
4C	12cL	.
.	12f	.
.	12a-J	.
4BB	12BL	.
.	12f	.
.	12a-J	.
=164	=164	=164
4C)	12cL	.
.	12f	.
.	12a-J	.
4D- (4d-	12dd-L	.
.	12a-	.
.	12fJ	.
4C 4c	12ccL	.
.	12a-	.
.	12fJ	.
4BB 4B)	12bL	.
.	12a-	.
.	12fJ	.
!!LO:LB:g=original
=165	=165	=165
*	*tuplet	*
4C (4c	12ccL	.
.	12a-	.
.	12fJ	.
*	*Xtuplet	*
4D- 4d-	12dd-L	.
.	12a-	.
.	12fJ	.
4C 4c	12ccL	.
.	12a-	.
.	12fJ	.
4BB 4B)	12bL	.
.	12a-	.
.	12fJ	.
=166	=166	=166
4C (4c	12ccL	.
.	12a-	.
.	12fJ	.
4d-	12ffL	.
.	12a-	.
.	12fJ	.
4d	12ffL	.
.	12b-X	.
.	12a-J	.
4e-)	12ee-L	.
.	12b-	.
.	12g-J	.
=167	=167	=167
(4A	12ee-L>	.
.	12cc	.
.	12fJ	.
4B-	12dd-L	.
.	12b-	.
.	12fJ	.
4G	12dd-L	.
.	12b-	.
.	12eJ	.
4A-)	12ccL	.
.	12a-	.
.	12fJ	.
=168	=168	=168
(4E	12b-L	.
.	12g	.
.	12cJ	.
4F	12a-L	.
.	12f	.
.	12cJ	.
4BB-	12gL	.
.	12d-	.
.	12B-J	.
4BB)	12fL	.
.	12d	.
.	12A-J	.
!!LO:LB:g=original
=169	=169	=169
*	*tuplet	*
(8CCL	12fL	.
.	12c	.
8C	.	.
.	12A-J	.
*	*Xtuplet	*
8CC	12fL	.
.	12c	.
8CJ	.	.
.	12A-J	.
8CCL	12eL	.
.	12c	.
8C	.	.
.	12GJ	.
8CC	12eL	.
.	12c	.
8CJ	.	.
.	12GJ	.
=170	=170	=170
4FF)	12fL<	.
.	12a-	.
.	12ccJ	.
(8FL	12ffL	.
.	12cc	.
8fJ	.	.
.	12a-J	.
8DnL	12ffL	.
.	12b-	.
8dnX	.	.
.	12a-J	.
8E-	12ee-L	.
.	12b-	.
8e-J)	.	.
.	12g-J	.
=171	=171	=171
(8AAnL	12ee-L>	.
.	12cc	.
8AnX	.	.
.	12fJ	.
8BB-	12dd-L	.
.	12b-	.
8B-J	.	.
.	12fJ	.
8GGL	12dd-L	.
.	12b-	.
8G	.	.
.	12eJ	.
8AA-	12ccL	.
.	12a-	.
8A-XJ	.	.
.	12fJ	.
=172	=172	=172
8EEnL	12b-L	.
.	12g	.
8EnX	.	.
.	12cJ	.
8FF	12a-L	.
.	12f	.
8FJ)	.	.
.	12cJ	.
(8BBB-L	12gL	.
.	12d-	.
8BB-	.	.
.	12B-J	.
8BBBn	12fL	.
.	12d	.
8BBnXJ)	.	.
.	12A-J	.
!!LO:LB:g=original
=173	=173	=173
*	*tuplet	*
(8CCL	12fL	.
.	12c	.
8C	.	.
*	*Xtuplet	*
.	12A-J	.
8CC	12fL	.
.	12c	.
8CJ	.	.
.	12A-J	.
8CCL	12eL	.
.	12c	.
8C	.	.
.	12GJ	.
8CC	12eL	.
.	12c	.
8CJ)	.	.
.	12GJ	.
=174	=174	=174
12FFL	4f	.
12AA-	.	.
12CJ	.	.
*Xtuplet	*	*
12FFL	4r	.
12AA-	.	.
12CJ	.	.
12FFL	4a-' (4aa-'	p
12AA-	.	.
12D-J	.	.
12FFL	4a-' 4aa-')	.
12AA-	.	.
12D-J	.	.
=175	=175	=175
12GGL	4g (4gg	.
12BB-	.	.
12D-J	.	.
12GGL	4f 4ff	.
12BB-	.	.
12E-J	.	.
12GGL	4e- 4ee-	.
12BB-	.	.
12E-J	.	.
12GGL	4d- 4dd-)	.
12BB-	.	.
12E-J	.	.
=176	=176	=176
12AA-L	2c 2cc	.
12C	.	.
12E-J	.	.
12AA-L	.	.
12C	.	.
12E-J	.	.
12AAL	4f' (4ff'	.
12C	.	.
12FJ	.	.
12AAL	4f' 4ff')	.
12C	.	.
12FJ	.	.
!!LO:LB:g=original
=177	=177	=177
*tuplet	*	*
12BB-L	(4e- 4ee-	.
12D-	.	.
12FJ	.	.
*Xtuplet	*	*
12BB-L	4d- 4dd-	.
12D-	.	.
12FJ	.	.
12BB-L	4c 4cc	.
12D-	.	.
12GJ	.	.
12BB-L	4B-) 4b-	.
12D-	.	.
12GJ	.	.
=178	=178	=178
12CL	2a-	.
12E-	.	.
12A-J	.	.
12CL	.	.
12E-	.	.
12A-J	.	.
12CL	4cc' (4ccc'	.
12E-	.	.
12AJ	.	.
12CL	4cc' 4ccc')	.
12E-	.	.
12AJ	.	.
=179	=179	=179
12D-L	4b- (4bb-	.
12F	.	.
12B-J	.	.
12D-L	4a- 4aa-	.
12F	.	.
12B-J	.	.
12DL	4g 4gg	.
12F	.	.
12BJ	.	.
12DL	4f 4ff)	.
12F	.	.
12BJ	.	.
=180	=180	=180
12CL	2c 2cc	.
12F	.	.
12A-J	.	.
12CL	.	.
12F	.	.
12A-J	.	.
12CL	(4c' 4cc'	.
12F	.	.
12A-J	.	.
12CL	4c') 4cc'	.
12F	.	.
12A-J	.	.
!!LO:LB:g=original
=181	=181	=181
*tuplet	*	*
12CL	2c 2cc	.
12E	.	.
12GJ	.	.
*Xtuplet	*	*
12CL	.	.
12E	.	.
12GJ	.	.
12CL	(4c' 4cc'	.
12E	.	.
12GJ	.	.
12CL	4c') 4cc'	.
12E	.	.
12GJ	.	.
=182	=182	=182
12FFL	4f	.
12AA-	.	.
12CJ	.	.
12FFL	4r	.
12AA-	.	.
12CJ	.	.
!	!	!LO:DY:rj
12FFL	4a-' (4aa-'	p
12AA-	.	.
12D-J	.	.
12FFL	4a-' 4aa-')	.
12AA-	.	.
12D-J	.	.
=183	=183	=183
12GGL	4g (4gg	.
12BB-	.	.
12D-J	.	.
12GGL	4f 4ff	.
12BB-	.	.
12D-J	.	.
12GGL	4e- 4ee-	.
12BB-	.	.
12E-J	.	.
12GGL	4d- 4dd-)	.
12BB-	.	.
12E-J	.	.
=184	=184	=184
12AA-L	2c 2cc	.
12C	.	.
12E-J	.	.
12AA-L	.	.
12C	.	.
12E-J	.	.
12AAL	4f' (4ff'	.
12C	.	.
12FJ	.	.
12AAL	4f' 4ff')	.
12C	.	.
12FJ	.	.
!!LO:LB:g=original
=185	=185	=185
*tuplet	*	*
12BB-L	(4e- 4ee-	.
12D-	.	.
12FJ	.	.
*Xtuplet	*	*
12BB-L	4d- 4dd-	.
12D-	.	.
12FJ	.	.
12BB-L	4c 4cc	.
12D-	.	.
12GJ	.	.
12BB-L	4B-) 4b-	.
12D-	.	.
12GJ	.	.
=186	=186	=186
12CL	2a-	.
12E-	.	.
12A-J	.	.
12CL	.	.
12E-	.	.
12A-J	.	.
12CL	4cc' (4ccc'	.
12E-	.	.
12AJ	.	.
12CL	4cc' 4ccc')	.
12E-	.	.
12AJ	.	.
=187	=187	=187
12D-L	4b- (4bb-	.
12F	.	.
12B-J	.	.
12D-L	4a- 4aa-	.
12F	.	.
12B-J	.	.
12DL	4g 4gg	.
12F	.	.
12BJ	.	.
12DL	4f 4ff)	.
12F	.	.
12BJ	.	.
=188	=188	=188
12CL	2c 2cc	.
12F	.	.
12A-J	.	.
12CL	.	.
12F	.	.
12A-J	.	.
12CL	(4c' 4cc'	.
12F	.	.
12A-J	.	.
12CL	4c') 4cc'	.
12F	.	.
12A-J	.	.
!!LO:LB:g=original
=189	=189	=189
*tuplet	*	*
12CL	2c 2cc	.
12E	.	.
12GJ	.	.
*Xtuplet	*	*
12CL	.	.
12E	.	.
12GJ	.	.
12CL	(4c' 4cc'	.
12E	.	.
12GJ	.	.
12CL	4c') 4cc'	.
12E	.	.
12GJ	.	.
=190	=190	=190
*	*tuplet	*
4FF 4F	12fL<	f
.	12a-	.
.	12ccJ	.
*	*Xtuplet	*
4r	12ffL	.
.	12aa-	.
.	12cccJ	.
*clefG2	*	*
4f' 4a-' 4cc'	12fffL	.
.	12ccc	.
.	12aa-J	.
4f' 4b-' 4dd-'	12eeeL	.
.	12ddd-	.
.	12bb-J	.
=191	=191	=191
4f' 4a-' 4cc'	12fffL	.
.	12ccc	.
.	12aa-J	.
4r	12ffL	.
.	12cc	.
.	12a-J	.
*clefF4	*	*
4F' 4A-' 4c'	12fL<	.
.	12a-	.
.	12ccJ	.
4C' 4G' 4c'	12eL<	.
.	12g	.
.	12ccJ	.
=192	=192	=192
4F' 4A-' 4c'	12fL<	.
.	12a-	.
.	12ccJ	.
4r	12ffL	.
.	12aa-	.
.	12cccJ	.
*clefG2	*	*
4f' 4a-' 4cc'	12fffL	.
.	12ccc	.
.	12aa-J	.
4f' 4b-' 4dd-'	12eeeL	.
.	12ddd-	.
.	12bb-J	.
!!LO:LB:g=original
=193	=193	=193
*	*tuplet	*
4f' 4a-' 4cc'	12fffL	.
.	12ccc	.
.	12aa-J	.
*	*Xtuplet	*
4r	12ffL	.
.	12cc	.
.	12a-J	.
*clefF4	*	*
4F' 4A-' 4c'	12fL<	.
.	12a-	.
.	12ccJ	.
4C' 4G' 4c'	12eL<	.
.	12g	.
.	12ccJ	.
=194	=194	=194
4F' 4A-' 4c'	12fL<	.
.	12a-	.
.	12ccJ	.
4r	12ffL	.
.	12aa-	.
.	12cccJ	.
4F' 4A-' 4c'	12fffL	ff
.	12ccc	.
.	12aa-J	.
4F' 4B-' 4d-'	12eeeL	.
.	12ddd-	.
.	12bb-J	.
=195	=195	=195
4F' 4A-' 4c'	12fffL	.
.	12ccc	.
.	12aa-J	.
4r	12ffL	.
.	12aa-	.
.	12cccJ	.
4F' 4A-' 4c'	12fffL	.
.	12ccc	.
.	12aa-J	.
4F' 4B-' 4d-'	12eeeL	.
.	12ddd-	.
.	12bb-J	.
=196	=196	=196
4F' 4A-' 4c'	12fffL	.
.	12ccc	.
.	12aa-J	.
4r	12ffL	.
.	12cc	.
.	12a-J	.
4r	12fL	.
.	12c	.
.	12A-J	.
12FL<	4r	.
12C	.	.
12AA-J	.	.
=197	=197	=197
4FF	1r;	.
4r	.	.
2r;	.	.
==	==	==
*-	*-	*-
!!!RDF**kern: > = above
!!!RDF**kern: < = below
!!!verovio: beamFrenchStyle
!!!LOR: Durand 1915, plates 9327/9328, Paul Dukas, ed.
!!!PED: Dukas, Paul
!!!URL-vhv: https://verovio.humdrum.org/?file=beethoven/sonatas/sonata01-4.krn
!!!URL-pdf: https://github.com/craigsapp/beethoven-piano-sonatas/blob/master/reference-edition/sonata01-4.pdf
!!!ENC: Craig Stuart Sapp
!!!END: 2004/04/05
!!!EED: Craig Stuart Sapp
!!!EEV: 2023/06/18
!!!filter-hands: shed -ke "s/^LH$/color:dodgerblue/I; s/^RH$/color:crimson/I'" 
